X: 15692
T: Golden Eagle, The
R: hornpipe
M: 4/4
K: Gmajor
c/B/A|:GBDG BDGB|dgBd gbag|fed^c cAFA|GBAG F/E/D c/B/A|
GBDG BDGB|dgBd gbag|fed^c cAFA|1 G2 GF G2 c/B/A:|2 G2GF G2 ~b2||
|:bB^df bagf|e^def gfg^g|aAce agfe|edce d2 ab|
c'afd cdef|gfga bgag|fed^c cAFA|1 G2 GF G2 ~b2:|2 G2 GF G2||

